Newaita-dark/devices/22/computer.svg

<?xml version="1.0" encoding="UTF-8"?>
<svg xmlns="http://www.w3.org/2000/svg" xmlns:xlink="http://www.w3.org/1999/xlink" width="22pt" height="22pt" viewBox="0 0 22 22" version="1.1">
<defs>
<linearGradient id="linear0" gradientUnits="userSpaceOnUse" x1="254" y1="233.5" x2="254" y2="254.666672" gradientTransform="matrix(0.0429729,0,0,0.0429729,-0.00000262285,9.239165)">
<stop offset="0" style="stop-color:rgb(0%,0%,0%);stop-opacity:0.27451;"/>
<stop offset="1" style="stop-color:rgb(0%,0%,0%);stop-opacity:0;"/>
</linearGradient>
<radialGradient id="radial0" gradientUnits="userSpaceOnUse" cx="450.908936" cy="189.579361" fx="450.908936" fy="189.579361" r="21.166656" gradientTransform="matrix(0.000000119742,-0.0537161,-0.0966889,-0.0000000698078,34.475433,43.721791)">
<stop offset="0" style="stop-color:rgb(0%,0%,0%);stop-opacity:0.313725;"/>
<stop offset="0.222222" style="stop-color:rgb(0%,0%,0%);stop-opacity:0.27451;"/>
<stop offset="1" style="stop-color:rgb(0%,0%,0%);stop-opacity:0;"/>
</radialGradient>
<radialGradient id="radial1" gradientUnits="userSpaceOnUse" cx="450.908936" cy="189.579361" fx="450.908936" fy="189.579361" r="21.166656" gradientTransform="matrix(-0.000000119742,0.0537161,0.0966889,0.0000000698078,-12.645221,-5.175142)">
<stop offset="0" style="stop-color:rgb(0%,0%,0%);stop-opacity:0.313725;"/>
<stop offset="0.222222" style="stop-color:rgb(0%,0%,0%);stop-opacity:0.27451;"/>
<stop offset="1" style="stop-color:rgb(0%,0%,0%);stop-opacity:0;"/>
</radialGradient>
<radialGradient id="radial2" gradientUnits="userSpaceOnUse" cx="450.908936" cy="189.579361" fx="450.908936" fy="189.579361" r="21.166656" gradientTransform="matrix(-0.000000119742,-0.0537161,0.0966889,-0.0000000698078,-12.645221,43.721791)">
<stop offset="0" style="stop-color:rgb(0%,0%,0%);stop-opacity:0.313725;"/>
<stop offset="0.222222" style="stop-color:rgb(0%,0%,0%);stop-opacity:0.27451;"/>
<stop offset="1" style="stop-color:rgb(0%,0%,0%);stop-opacity:0;"/>
</radialGradient>
<radialGradient id="radial3" gradientUnits="userSpaceOnUse" cx="450.908936" cy="189.579361" fx="450.908936" fy="189.579361" r="21.166656" gradientTransform="matrix(0.000000119742,0.0537161,-0.0966889,0.0000000698078,34.475431,-5.175142)">
<stop offset="0" style="stop-color:rgb(0%,0%,0%);stop-opacity:0.313725;"/>
<stop offset="0.222222" style="stop-color:rgb(0%,0%,0%);stop-opacity:0.27451;"/>
<stop offset="1" style="stop-color:rgb(0%,0%,0%);stop-opacity:0;"/>
</radialGradient>
<linearGradient id="linear1" gradientUnits="userSpaceOnUse" x1="840" y1="1455.118164" x2="840" y2="1695.118164" gradientTransform="matrix(0.0113699,0,0,-0.0113699,0.000000286486,35.817863)">
<stop offset="0" style="stop-color:rgb(38.039216%,38.039216%,38.039216%);stop-opacity:1;"/>
<stop offset="1" style="stop-color:rgb(25.882353%,25.882353%,25.882353%);stop-opacity:1;"/>
</linearGradient>
<linearGradient id="linear2" gradientUnits="userSpaceOnUse" x1="306.916656" y1="-25.791676" x2="305.954559" y2="-141.414581" gradientTransform="matrix(0.0518029,0,0,0.149471,-4.024634,23.128427)">
<stop offset="0" style="stop-color:rgb(36.078431%,41.960784%,75.294118%);stop-opacity:1;"/>
<stop offset="1" style="stop-color:rgb(47.45098%,52.54902%,79.607843%);stop-opacity:1;"/>
</linearGradient>
<linearGradient id="linear3" gradientUnits="userSpaceOnUse" x1="444.5" y1="185.875" x2="444.5" y2="148.833328" gradientTransform="matrix(0.5,0,0,0.571428,169.333206,-297.38092)">
<stop offset="0" style="stop-color:rgb(30.196078%,71.372549%,67.45098%);stop-opacity:1;"/>
<stop offset="1" style="stop-color:rgb(0%,58.823529%,53.333333%);stop-opacity:1;"/>
</linearGradient>
</defs>
<g id="surface1">
<path style=" stroke:none;fill-rule:nonzero;fill:url(#linear0);" d="M 5.457031 19.273438 L 16.371094 19.273438 L 16.371094 20.183594 L 5.457031 20.183594 Z M 5.457031 19.273438 "/>
<path style=" stroke:none;fill-rule:nonzero;fill:url(#radial0);" d="M 16.371094 19.273438 L 18.191406 19.273438 L 18.191406 18.363281 L 16.371094 18.363281 Z M 16.371094 19.273438 "/>
<path style=" stroke:none;fill-rule:nonzero;fill:url(#radial1);" d="M 5.457031 19.273438 L 3.636719 19.273438 L 3.636719 20.183594 L 5.457031 20.183594 Z M 5.457031 19.273438 "/>
<path style=" stroke:none;fill-rule:nonzero;fill:url(#radial2);" d="M 5.457031 19.273438 L 3.636719 19.273438 L 3.636719 18.363281 L 5.457031 18.363281 Z M 5.457031 19.273438 "/>
<path style=" stroke:none;fill-rule:nonzero;fill:url(#radial3);" d="M 16.371094 19.273438 L 18.191406 19.273438 L 18.191406 20.183594 L 16.371094 20.183594 Z M 16.371094 19.273438 "/>
<path style=" stroke:none;fill-rule:nonzero;fill:url(#linear1);" d="M 4.546875 19.273438 C 4.042969 19.273438 3.636719 18.867188 3.636719 18.363281 L 3.636719 16.542969 L 18.191406 16.542969 L 18.191406 18.363281 C 18.191406 18.867188 17.785156 19.273438 17.28125 19.273438 Z M 4.546875 19.273438 "/>
<path style=" stroke:none;fill-rule:nonzero;fill:rgb(0%,0%,0%);fill-opacity:0.235294;" d="M 4.546875 19.214844 C 4.042969 19.214844 3.636719 18.8125 3.636719 18.308594 L 3.636719 18.191406 C 3.636719 18.695312 4.042969 19.101562 4.546875 19.101562 L 17.28125 19.101562 C 17.785156 19.101562 18.191406 18.695312 18.191406 18.191406 L 18.191406 18.308594 C 18.191406 18.8125 17.785156 19.214844 17.28125 19.214844 Z M 4.546875 19.214844 "/>
<path style="fill:none;stroke-width:3;stroke-linecap:round;stroke-linejoin:miter;stroke:rgb(12.941177%,12.941177%,12.941177%);stroke-opacity:1;stroke-miterlimit:4;" d="M 105.808078 233.502625 C 94.081925 233.502625 84.628282 224.048982 84.628282 212.322829 L 84.628282 169.963238 L 423.323211 169.963238 L 423.323211 212.322829 C 423.323211 224.048982 413.869568 233.502625 402.143415 233.502625 Z M 105.808078 233.502625 " transform="matrix(0.0429729,0,0,0.0429729,0,9.239163)"/>
<path style=" stroke:none;fill-rule:nonzero;fill:url(#linear2);" d="M 2.273438 1.992188 L 19.554688 1.992188 C 20.058594 1.992188 20.464844 2.398438 20.464844 2.902344 L 20.464844 16.089844 C 20.464844 16.59375 20.058594 17 19.554688 17 L 2.273438 17 C 1.773438 17 1.363281 16.59375 1.363281 16.089844 L 1.363281 2.902344 C 1.363281 2.398438 1.773438 1.992188 2.273438 1.992188 Z M 2.273438 1.992188 "/>
<path style="fill-rule:nonzero;fill:url(#linear3);stroke-width:3;stroke-linecap:round;stroke-linejoin:miter;stroke:rgb(12.941177%,12.941177%,12.941177%);stroke-opacity:1;stroke-miterlimit:4;" d="M 391.598968 -212.322829 C 397.416594 -212.322829 402.143415 -207.596008 402.143415 -201.778381 C 402.143415 -195.869855 397.416594 -191.143033 391.598968 -191.143033 C 385.781342 -191.143033 380.96362 -195.869855 380.96362 -201.778381 C 380.96362 -207.596008 385.781342 -212.322829 391.598968 -212.322829 Z M 391.598968 -212.322829 " transform="matrix(0.0429729,0,0,-0.0429729,0,9.239163)"/>
<path style=" stroke:none;fill-rule:nonzero;fill:rgb(100%,100%,100%);fill-opacity:0.392157;" d="M 2.273438 1.992188 C 1.769531 1.992188 1.363281 2.398438 1.363281 2.902344 L 1.363281 3.179688 C 1.363281 2.675781 1.769531 2.269531 2.273438 2.269531 L 19.554688 2.269531 C 20.058594 2.269531 20.464844 2.675781 20.464844 3.179688 L 20.464844 2.902344 C 20.464844 2.398438 20.058594 1.992188 19.554688 1.992188 Z M 2.273438 1.992188 "/>
<path style=" stroke:none;fill-rule:nonzero;fill:rgb(0%,0%,0%);fill-opacity:0.235294;" d="M 1.363281 15.785156 L 1.363281 16.089844 C 1.363281 16.59375 1.769531 17 2.273438 17 L 19.554688 17 C 20.058594 17 20.464844 16.59375 20.464844 16.089844 L 20.464844 15.785156 C 20.464844 16.289062 20.058594 16.695312 19.554688 16.695312 L 2.273438 16.695312 C 1.769531 16.695312 1.363281 16.289062 1.363281 15.785156 Z M 1.363281 15.785156 "/>
<path style=" stroke:none;fill-rule:nonzero;fill:rgb(0%,0%,0%);fill-opacity:1;" d="M 2.273438 1.925781 C 1.734375 1.925781 1.300781 2.363281 1.300781 2.902344 L 1.300781 16.089844 C 1.300781 16.628906 1.734375 17.0625 2.273438 17.0625 L 19.554688 17.0625 C 20.09375 17.0625 20.53125 16.628906 20.53125 16.089844 L 20.53125 2.902344 C 20.53125 2.363281 20.09375 1.925781 19.554688 1.925781 Z M 2.273438 2.054688 L 19.554688 2.054688 C 20.027344 2.054688 20.402344 2.429688 20.402344 2.902344 L 20.402344 16.089844 C 20.402344 16.558594 20.027344 16.933594 19.554688 16.933594 L 2.273438 16.933594 C 1.804688 16.933594 1.429688 16.558594 1.429688 16.089844 L 1.429688 2.902344 C 1.429688 2.429688 1.804688 2.054688 2.273438 2.054688 Z M 2.273438 2.054688 "/>
</g>
</svg>

<svg xmlns="http://www.w3.org/2000/svg" width="22pt" height="22pt" viewBox="0 0 22 22"><defs><linearGradient id="a" gradientUnits="userSpaceOnUse" x1="254" y1="233.5" x2="254" y2="254.667" gradientTransform="matrix(.04297 0 0 .04297 0 9.24)"><stop offset="0" stop-opacity=".275"/><stop offset="1" stop-opacity="0"/></linearGradient><radialGradient id="b" gradientUnits="userSpaceOnUse" cx="450.909" cy="189.579" fx="450.909" fy="189.579" r="21.167" gradientTransform="matrix(0 -.05372 -.09669 0 34.475 43.722)"><stop offset="0" stop-opacity=".314"/><stop offset=".222" stop-opacity=".275"/><stop offset="1" stop-opacity="0"/></radialGradient><radialGradient id="c" gradientUnits="userSpaceOnUse" cx="450.909" cy="189.579" fx="450.909" fy="189.579" r="21.167" gradientTransform="matrix(0 .05372 .09669 0 -12.645 -5.175)"><stop offset="0" stop-opacity=".314"/><stop offset=".222" stop-opacity=".275"/><stop offset="1" stop-opacity="0"/></radialGradient><radialGradient id="d" gradientUnits="userSpaceOnUse" cx="450.909" cy="189.579" fx="450.909" fy="189.579" r="21.167" gradientTransform="matrix(0 -.05372 .09669 0 -12.645 43.722)"><stop offset="0" stop-opacity=".314"/><stop offset=".222" stop-opacity=".275"/><stop offset="1" stop-opacity="0"/></radialGradient><radialGradient id="e" gradientUnits="userSpaceOnUse" cx="450.909" cy="189.579" fx="450.909" fy="189.579" r="21.167" gradientTransform="matrix(0 .05372 -.09669 0 34.475 -5.175)"><stop offset="0" stop-opacity=".314"/><stop offset=".222" stop-opacity=".275"/><stop offset="1" stop-opacity="0"/></radialGradient><linearGradient id="f" gradientUnits="userSpaceOnUse" x1="840" y1="1455.118" x2="840" y2="1695.118" gradientTransform="matrix(.01137 0 0 -.01137 0 35.818)"><stop offset="0" stop-color="#616161"/><stop offset="1" stop-color="#424242"/></linearGradient><linearGradient id="g" gradientUnits="userSpaceOnUse" x1="306.917" y1="-25.792" x2="305.955" y2="-141.415" gradientTransform="matrix(.0518 0 0 .14947 -4.025 23.128)"><stop offset="0" stop-color="#5c6bc0"/><stop offset="1" stop-color="#7986cb"/></linearGradient><linearGradient id="h" gradientUnits="userSpaceOnUse" x1="444.5" y1="185.875" x2="444.5" y2="148.833" gradientTransform="matrix(.5 0 0 .57143 169.333 -297.38)"><stop offset="0" stop-color="#4db6ac"/><stop offset="1" stop-color="#009688"/></linearGradient></defs><path d="M5.457 19.273h10.914v.91H5.457zm0 0" fill="url(#a)"/><path d="M16.371 19.273h1.82v-.91h-1.82zm0 0" fill="url(#b)"/><path d="M5.457 19.273h-1.82v.91h1.82zm0 0" fill="url(#c)"/><path d="M5.457 19.273h-1.82v-.91h1.82zm0 0" fill="url(#d)"/><path d="M16.371 19.273h1.82v.91h-1.82zm0 0" fill="url(#e)"/><path d="M4.547 19.273a.909.909 0 0 1-.91-.91v-1.82H18.19v1.82c0 .504-.406.91-.91.91zm0 0" fill="url(#f)"/><path d="M4.547 19.215a.905.905 0 0 1-.91-.906v-.118c0 .504.406.91.91.91H17.28c.504 0 .91-.406.91-.91v.118a.905.905 0 0 1-.91.906zm0 0" fill-opacity=".235"/><path d="M4.547 19.273a.909.909 0 0 1-.91-.91v-1.82H18.19v1.82c0 .504-.406.91-.91.91zm0 0" fill="none" stroke-width=".12891" stroke-linecap="round" stroke="#212121"/><path d="M2.273 1.992h17.282c.504 0 .91.406.91.91V16.09c0 .504-.406.91-.91.91H2.273c-.5 0-.91-.406-.91-.91V2.902c0-.504.41-.91.91-.91zm0 0" fill="url(#g)"/><path d="M391.599-212.323c5.818 0 10.544 4.727 10.544 10.545 0 5.908-4.726 10.635-10.544 10.635-5.818 0-10.635-4.727-10.635-10.635 0-5.818 4.817-10.545 10.635-10.545zm0 0" transform="matrix(.04297 0 0 -.04297 0 9.24)" fill="url(#h)" stroke-width="3" stroke-linecap="round" stroke="#212121"/><path d="M2.273 1.992a.909.909 0 0 0-.91.91v.278c0-.504.407-.91.91-.91h17.282c.504 0 .91.406.91.91v-.278a.909.909 0 0 0-.91-.91zm0 0" fill="#fff" fill-opacity=".392"/><path d="M1.363 15.785v.305c0 .504.407.91.91.91h17.282c.504 0 .91-.406.91-.91v-.305c0 .504-.406.91-.91.91H2.273a.909.909 0 0 1-.91-.91zm0 0" fill-opacity=".235"/><path d="M2.273 1.926a.974.974 0 0 0-.972.976V16.09c0 .539.433.973.972.973h17.282c.539 0 .976-.434.976-.973V2.902a.977.977 0 0 0-.976-.976zm0 .129h17.282c.472 0 .847.375.847.847V16.09a.841.841 0 0 1-.847.844H2.273a.84.84 0 0 1-.843-.844V2.902c0-.472.375-.847.843-.847zm0 0"/></svg>
